!!!COM: Fanny (Mendelssohn) Hensel
!!!CNT: Deutsch
!!!TXO: Deutsch
!!!OTL: "Von dir, mein Lieb, ich scheiden muss"
!!!LYR: Burns, Robert (German words by P. Kaufmann)
!!!OPR: 
!!!OPS: Op. 
!!!ONM: No. 
!!!ENC: Emily Thomas
!!!YOR: Hensel: 16 Songs Fanny Mendelssohn Hensel
!!!YOR: Alfred, 1995
!!!ODT: 1841/
!!NB: Vocal melody and text encoded.
**kern	**silbe
=1	=1
*clefG2	*
*k[b-]	*
*M4/4	*
*MM[Allegro]	*
2r	.
4r	.
{4a	{Von
=2	=2
4cc}	dir,}
4r	.
4r	.
{4f	{mein
=3	=3
4dd-}	Lieb',}
4r	.
4r	.
{4b-	{ich
=4	=4
2b-	schei-
16ccq	|
16b-q	|
4a	|
4b-	-den
=5	=5
4cc}	muss,}
4r	.
2r	.
=6	=6
{2cc	{wie
4cc	ist
4cc	mein
=7	=7
1ee-	Herz
=8	=8
4dd	|
4cc	|
4b-	|
4a	so
=9	=9
2b-}	schwer.}
2r	.
=10	=10
{2dd	{Uns
4b-	trennt
4g	nach
=11	=11
2.e	grim-
4e	-mem
=12	=12
2dd	Schick-
4b-	|
4g	-sals-
=13	=13
2e}	-schluss}
2r	.
=14	=14
2r	.
4r	.
{4dd	{das
=15	=15
2.ff	wei-
4dd	-te,
=16	=16
2.cc#	o2-
4ee	-de
=17	=17
2dd}	Meer.}
2r	.
=18	=18
2r	.
4r	.
8r	.
{8dd	Das
=19	=19
2.dd	wei-
4a	-te
=20	=20
2.b-	meer,
4b-	das
=21	=21
2.b-	brau-
4f	-send
=22	=22
2g-}	wild}
2r	.
=23	=23
{4ee-	{wogt
4dd-	|
4cc-	zwi-
4g-	-schen
=24	=24
2e-	dir
4r	.
4cc-	und
=25	=25
2b-	mir,
4a}	|}
4r	.
=26	=26
1r	.
=27	=27
{2b-	{trennt
4cc	von
4b-	der
=28	=28
2gg	See-
2ee-	-le
=29	=29
2dd-	nicht
4cc	|
4b-	dein
=30	=30
2a-}	Bild,}
2r	.
=31	=31
{2cc	{trennt
4dd-	von
4cc	der
=32	=32
2cc	See-
2ff	-le
=33	=33
2.aa-	nicht
4gg	dein
=34	=34
2.ff}	Bild,}
{4bn	{und
=35	=35
2cc	nicht
2dd	mein
=36	=36
2ee	Herz,
2ff	mein
=37	=37
2.g	herz
8b-	von
8a	|
=38	=38
4f}	dir,}
4r	.
4r	.
{4f	{und
=39	=39
2ee-	nicht
4r	.
8ee-	mein
8dd	|
=40	=40
2dd}	Herz,}
4r	.
{4f	{mein
=41	=41
[1b-	Herz
=42	=42
1b-_	|
=43	=43
4b-]	|
4dd	|
4cc	|
4b-	|
=44	=44
4a	|
4g	|
4b-	|
4e	von
=45	=45
4f}	dir.}
4r	.
2r	.
==	==
*-	*-
